X: 29537
T: Noble Squire Dacre
R: jig
M: 6/8
K: Gmajor
|B>AG G>FG|G>AB A2G|c>BA A>BA|c>ec efg|
B>AG G>AG|G>AB A2G|c>ec def|g2B A2G|
BG/A/B/G/ d2G|BG/A/B/G/ d2G|cA/B/c/A/ eA/B/c/A/|cA/B/c/A/ efg|
BG/A/B/G/ d2G|BG/A/B/G/ d2G|cec def|g2B A2G|

